!!!COM: Scarlatti, Domenico
!!!CDT: 1685-1757
!!!OTL: Sonata in B minor, L.346, K.408
!!!SCT: K. 408
!!!SCT: L. 346
!!!OMD: Allegro ([half]=104)
**kern	**kern	**dynam
*staff2	*staff1	*staff1/2
*Icemba	*Icemba	*
*I"L.346 (K.408)	*I"L.346 (K.408)	*
*>[A,A,B,B]	*>[A,A,B,B]	*>[A,A,B,B]
*>norep[A,B]	*>norep[A,B]	*>norep[A,B]
*>A	*>A	*>A
*clefF4	*clefG2	*
*k[f#c#]	*k[f#c#]	*
*b:	*b:	*
*M2/2	*M2/2	*
*met(c|)	*met(c|)	*
*MM208	*MM208	*
=1-	=1-	=1-
1r	4r	.
.	(8ff#L	mf
.	8ddJ	.
.	4b')	.
.	4f#'	.
=2	=2	=2
1r	(8bL	<
.	8a#	.
.	8cc#	.
.	8bJ	.
.	8ddL	.
.	8cc#	.
.	8ee	.
.	8ddJ	.
=3	=3	=3
4r	2.ff#)	[ f
(8f#L	.	mf
8dJ	.	.
4B')	.	.
4F#'	(4ee	.
!!LO:LB:g=z
=4	=4	=4
(8BL	4dd')	.
8A#	.	.
8c#	(2cc#	<
8BJ	.	.
8dL	.	.
8c#	.	.
8e	[4b	.
8dJ	.	[[
=5	=5	=5
4f#)	8bL<]	> ]
.	8a#)	.
(2e	(8a#	<
.	8bJ	.
.	8cc#L	.
.	8dd	.
4d	8ee	.
.	8ff#J)	.
=6	=6	=6
4c#	(8ff#L	[
.	8gg)	>
4B	(8gg	.
.	8ff#J)	.
4A#	(8ff#L	.
.	8ee	.
4F#	8dd	.
.	8cc#J	]
!!LO:LB:g=z
=7	=7	=7
8BL	4dd)	<
8A#)	.	.
(8A#	4r	.
8BJ	.	.
8c#L	2r	.
8d	.	.
8e	.	.
8f#J)	.	[[
=8	=8	=8
(8f#L	2r	>
8g)	.	.
(8g	.	.
8f#J)	.	.
(8f#L	8r	.
8e	(8cc#L	.
8d	8b	.
8c#J	8a#J	]]
=9	=9	=9
2.d)	8bL	p
.	8ff#)	.
.	(8ff#	.
.	8bJ)	.
.	(8bL	.
.	8an	.
4B'	8g	.
.	8f#J	.
!!LO:LB:g=z
=10	=10	=10
(4e	8gL	.
.	8ee)	.
4d	(8ee	.
.	8aJ)	.
4c#	(8aL	.
.	8g	.
4A	8f#	.
.	8eJ	.
=11	=11	=11
2d)	8f#L)	.
.	8aa'	mf
.	(8aa	.
.	8ddJ)	.
4r	(8ddL	.
.	8cc#)	.
4f#'	(8cc#	.
.	8bJ)	.
=12	=12	=12
(4g	(8bL	.
.	8bb)	.
4f#	(8bb	.
.	8eeJ)	.
4e	(8eeL	.
.	8dd)	.
4g)	(8dd	.
.	8cc#J)	.
!!LO:LB:g=z
=13	=13	=13
8AL	(4cc#	.
8G#	.	.
8B	4dd	p <
8AJ	.	.
8c#L	4ee	.
8B	.	.
8d	4ff#	.
8DJ	.	[[
=14	=14	=14
[2A	8eeL	>
.	8dd	.
.	8cc#	.
.	8bJ	.
8AL]	8a)	]
(8g	8r	mf
8f#	4r	.
8eJ	.	.
=15	=15	=15
2d)	8r	.
.	(8ddL	.
.	8cc#	.
.	8ddJ	.
4e'	8ggL	.
.	8ee	.
4g'	8dd	.
.	8cc#J)	.
!!LO:LB:g=z
=16	=16	=16
(4f#	(8cc#L	.
.	8dd	.
4d)	8cc#	.
.	8ddJ	.
4e'	8ggL	.
.	8ee	.
4g'	8dd	.
.	8cc#J	.
=17	=17	=17
(8f#L	2dd)	p
8d	.	<
8c#	.	.
8dJ	.	.
8gL	4r	.
8e	.	.
8d	4gg'	.
8c#J)	.	.
=18	=18	=18
(8c#L	2ff#	.
8d	.	.
8c#	.	.
8dJ	.	.
8gL	4r	.
8e	.	.
8d	4gg'	.
8c#J	.	.
!!LO:LB:g=z
=19	=19	=19
4d')	4ff#'	.
*clefG2	*	*
(4dd	(12dddL	f
.	12ccc#	.
.	12dddJ	.
*Xtuplet	*Xtuplet	*
4cc#	12aaL	.
.	12gg#	.
.	12aaJ	.
4a	12eeL	.
.	12ff#	.
.	12ggnJ	.
=20	=20	=20
4d')	4ff#')	.
(12ddL	4r	.
12cc#	.	.
12ddJ	.	.
12aL	2r	.
12g#	.	.
12aJ	.	.
12eL	.	.
12f#	.	.
12gnJ	.	.
=21	=21	=21
4f#')	4r	.
(4d	(12dddL	.
.	12ccc#	.
.	12dddJ	.
4c#	12aaL	.
.	12gg#	.
.	12aaJ	.
4A	12eeL	.
.	12ff#	.
.	12ggnJ	.
!!LO:LB:g=z
=22	=22	=22
4d)	12ff#L	.
.	12gg	.
.	12aaJ	.
*clefF4	*	*
(4G	12ggL	.
.	12ff#	.
.	12eeJ	.
4A')	4dd')	.
4AA'	4cc#'	.
=23	=23	=23
4D'	4dd'	.
(12dL	(4ff#	p
12c#	.	.
12dJ	.	.
12AL	4ee	.
12G#	.	.
12AJ	.	.
12DL	4dd	.
12C#	.	.
12DJ	.	.
=24	=24	=24
4AA')	4ee')	.
(<12AL	4ee (4gg	<
12G#	.	.
12AJ	.	.
12DL	4dd 4ff#	.
12C#	.	.
12DJ	.	.
12AAL	4cc# 4ee	.
12GG#	.	.
12AAJ	.	.
!!LO:LB:g=z
=25	=25	=25
4DD')	4dd')	.
(12dL	(4ff#	.
12c#	.	.
12dJ	.	.
12AL	4ee	.
12G#	.	.
12AJ	.	.
12DL	4dd	.
12C#	.	.
12DJ	.	.
=26	=26	=26
4AA')	4ee')	.
(<12AL	4ee (4gg	.
12G#	.	.
12AJ	.	.
12DL	4dd 4ff#	.
12C#	.	.
12DJ	.	.
12AAL	4cc# 4ee)	.
12GG#	.	.
12AAJ	.	.
=27	=27	=27
*	*^	*
4DD')	(12ff#L	4dd	f
.	12gg	.	.
.	12aaJ	.	.
(4G	4ryy	12ggL	.
.	.	12ff#	.
.	.	12eeJ	.
4A')	4ryy	4dd')	.
4AA'	4ryy	4cc#'	.
!!LO:LB:g=z
=28	=28	=28	=28
(4B	2.dd	(12ddL	.
.	.	12a	.
.	.	12cc#J	.
4G	.	12bL	.
.	.	12a	.
.	.	12gJ	.
4A')	.	4f#')	.
4AA'	4ryy	4e' 4cc#'	.
*	*v	*v	*
=29	=29	=29
.	(8eq 8cc#q	.
2DD 2D	2d) 2dd)	.
2r	2r	.
=30:|!|:	=30:|!|:	=30:|!|:
*>B	*>B	*>B
2DD 2D	4d' 4dd'	f
.	(12dL	.
.	12c#	.
.	12dJ	.
2r	12f#L	.
.	12e	.
.	12f#J)	.
.	(4f# 4dd	sf >
=31	=31	=31
4r	4e) 4cc#	]
(4AA/ 4A/	4f#\ (4dd#\	<
4GG 4G	4g 4ee	.
4FF# 4F#	4a 4ff#	.
!!LO:LB:g=z
=32	=32	=32
2EE 2E)	4b' 4gg')	[
.	(12eL	.
.	12d#	.
.	12eJ	.
2r	12gL	.
.	12f#	.
.	12gJ)	[
.	(4g/ 4ee/	sf >
=33	=33	=33
4r	4f#) 4dd	]
(4BB 4B	4g# (4ee#	<
4AA 4A	4a 4ff#	.
4GG# 4G#	4b 4gg#)	[[
=34	=34	=34
4FF#) 4F#	(12aaL	f
.	12cc#	.
.	12aaJ	.
(<4GG# 4G#	12gg#L	.
.	12b	.
.	12gg#J	.
4AA/ 4A/	12ff#L	.
.	12a	.
.	12ff#J	.
4AA#/ 4A#/	12eeL	.
.	12gn	.
.	12eeJ	.
!!LO:LB:g=z
=35	=35	=35
4BB 4B	12ddL>	.
.	12f#	.
.	12ddJ	.
4C# 4c#	12cc#L	.
.	12e#	.
.	12cc#J	.
4D) 4d	12bL	.
.	12a	.
.	12g#J	.
4D' 4d'	12f#L	.
.	12e#	.
.	12f#J	.
=36	=36	=36
2C# 2c#	8e#L)	.
.	(8cc#	p
.	8b	.
.	8cc#J	.
4r	8ddL	.
.	8b	.
*clefG2	*	*
4c#' 4e#'	8a	.
.	8g#J	.
=37	=37	=37
*^	*	*
(4f#	2c#	8aL>)	.
.	.	(<8cc#	.
4e#)	.	8b	.
.	.	8cc#J	.
4r	4r	8ddL	.
.	.	8b	.
4c#' 4e#'	4ryy	8a	.
.	.	8g#J	.
!!LO:LB:g=z
=38	=38	=38	=38
(4f#	2c#	8aL>)	<
.	.	(8cc#	.
4en)	.	8b	.
.	.	8cc#J	.
4r	4r	8eeL>	.
.	.	8cc#	.
4c#' 4e' 4g'	4ryy	8b	.
.	.	8a#J	.
*v	*v	*	*
=39	=39	=39
(4d 4f#	8bL>)	.
.	(8cc#	.
4c# 4e)	8b	.
.	8cc#J	.
4r	8eeL	.
.	8cc#	.
4c#' 4e' 4g'	8b	.
.	8a#J	.
=40	=40	=40
(4d 4f#	8bL)	mf
.	(8ff#	.
4B 4d)	8ee	.
.	8ff#J	.
4r	8ggL	.
.	8ee	.
4A#' 4c#'	8dd	.
.	8cc#J	.
=41	=41	=41
(4B 4d	8ddL)	.
.	(8ff#	.
4A# 4c#)	8ee	.
.	8ff#J	.
4r	8ggL	.
.	8ee	.
4A#' 4c#'	8dd	.
.	8cc#J	.
!!LO:LB:g=z
=42	=42	=42
(<8BL	4dd)	.
8A#	.	.
8c#	(4ee	.
8BJ	.	.
8dL	4ff#	.
8c#	.	.
8e	4gg	.
8dJ	.	.
=43	=43	=43
8f#L	4ff#')	.
8e	.	.
8g	(2ee	.
8f#J	.	.
8a#L	.	.
8f#	.	.
8b	4dd	.
8BJ	.	.
*clefF4	*	*
=44	=44	=44
[2F#)	8cc#L	>
.	8b	.
.	8a#	.
.	8g#J	.
8F#L]	8f#)	]
(8e	8r	.
8d	4r	.
8c#J	.	.
=45	=45	=45
2B)	8r	.
.	(8bL<	mf
.	8a#	.
.	8bJ	.
4r	8eeL	.
.	8cc#	.
4c#' 4e'	8b	.
.	8a#J)	.
!!LO:LB:g=z
=46	=46	=46
(4d	(8a#L<	.
.	8b	.
4B)	8a#	.
.	8bJ	.
4r	8eeL	.
.	8cc#	.
4c#' 4e'	8b	.
.	8a#J	.
=47	=47	=47
(8dL	2b)	p
8B	.	<
8A#	.	.
8BJ	.	.
8eL	4r	.
8c#	.	.
8B	4ee'	.
8A#J)	.	.
=48	=48	=48
(8A#L	2dd	.
8B	.	.
8A#	.	.
8BJ	.	.
8eL	4r	.
8c#	.	.
8B	4ee'	.
8A#J	.	.
=49	=49	=49
4B)	4dd'	.
*clefG2	*	*
(<4b	(12bbL	f
.	12aa#	.
.	12bbJ	.
4a#	12ff#L	.
.	12ee	.
.	12ff#J	.
4f#	12cc#L	.
.	12dd	.
.	12eeJ	.
!!LO:LB:g=z
=50	=50	=50
4B)	4dd)	.
(12bL	4r	.
12a#	.	.
12bJ	.	.
12f#L	2r	.
12e	.	.
12f#J	.	.
12c#L	.	.
12d	.	.
12eJ	.	.
=51	=51	=51
4d')	4r	.
*clefF4	*	*
(4B	(12bbL	.
.	12aa#	.
.	12bbJ	.
4A#	12ff#L	.
.	12ee	.
.	12ff#J	.
4F#	12cc#L	.
.	12dd	.
.	12eeJ	.
=52	=52	=52
4B	12ddL	.
.	12ee	.
.	12ff#J	.
4E	12eeL	.
.	12dd	.
.	12cc#J	.
4F#')	4b'/)	.
4FF#'	4a#'	.
!!LO:LB:g=z
=53	=53	=53
4BB'	4b'/	.
(12bL	(4dd	p
12a#	.	.
12bJ	.	.
12f#L	4cc#	.
12e	.	.
12f#J	.	.
12BL	4b	.
12A#	.	.
12BJ	.	.
=54	=54	=54
4F#')	4cc#')	.
(12f#L	4cc# (4ee	<
12e	.	.
12f#J	.	.
12BL	4b 4dd	.
12A#	.	.
12BJ	.	.
12F#L	4a# 4cc#	.
12E	.	.
12F#J	.	.
=55	=55	=55
4BB')	4b')	.
(12BL	(4dd	.
12A#	.	.
12BJ	.	.
12F#L	4cc#	.
12E	.	.
12F#J	.	.
12BBL	4b	.
12AA#	.	.
12BBJ	.	.
!!LO:LB:g=z
=56	=56	=56
4FF#')	4cc#')	.
(<12F#L	4cc# (4ee	.
12E	.	.
12F#J	.	.
12BBL	4b 4dd	.
12AA#	.	.
12BBJ	.	.
12FF#L	4a# 4cc#)	.
12EE	.	.
12FF#J	.	.
=57	=57	=57
*	*^	*
4BB	(12ddL	4b	f
.	12ee	.	.
.	12ff#J	.	.
4E	4ryy	12eeL	.
.	.	12dd	.
.	.	12cc#J	.
4F#')	4b'<)	4ryy	.
4FF#'	4a#'	4ryy	.
*	*v	*v	*
=58	=58	=58
(4G	(12bL	.
.	12e	.
.	12f#J	.
4E	12gL	.
.	12f#	.
.	12eJ	.
4F#')	4d') 4b'	.
4FF#'	4c#' 4a#'	.
=59	=59	=59
.	(8c#q 8a#q	.
2BBB 2BB	2B) 2b)	.
2r	2r	.
==:|!	==:|!	==:|!
*-	*-	*-
!!!RDF**kern: > = above
!!!RDF**kern: < = below
!!!PTL: Domenico Scarlatti: Opere complete per clavicembalo
!!!PED: Longo, Alessandro
!!!PPR: Ricordi
!!!PPP: Milan
!!!PDT: 1906-1913
!!!ENC: Craig Stuart Sapp
!!!END: 2004/11/03
!!!EED: Craig Stuart Sapp
!!!EEV: 2020/12/18
